X:54
T:Redican's Bow (reel)
F:file ID gstc/054red_b
Z:bill@capeirish.com
Q:180
N:This has Larry Redican's name on it but I don't know 
if he composed it or not. It always reminded me of 
"The Spey in Spate". The D, A, and G sharps are mainly 
for box players but don't let that stop you from trying 
them if you play another instrument.
R:reel
M:4/4
K:D
D2 FD A,DFD|E2 GE B,EFE|D2dA BAFD|E^DEF EB,CA,|
D2 FD A,DFD|E2 GE B,EFE|D2dA BAFD|CDEC D2 FA||
B^ABc d2 F=A|B2 B^A BdcB|A2 cA EAce|aecA BAFA|
B^ABc B=AFA|Bcdc B2 dc|BF F2 BEF^G|AcBA FECA,|\
"last time"D4z4|]

